public/images/linkedin.svg

<svg fill="none" height="800" viewBox="0 0 24 24" width="800" xmlns="http://www.w3.org/2000/svg"><path d="m22 3.47059v17.05881c0 .39-.155.7641-.4308 1.0399-.2757.2758-.6498.4307-1.0398.4307h-17.05884c-.39003 0-.76408-.1549-1.03987-.4307-.27578-.2758-.43072-.6499-.43072-1.0399v-17.05881c0-.39003.15494-.76408.43072-1.03986.27579-.27579.64984-.43073 1.03987-.43073h17.05884c.39 0 .7641.15494 1.0398.43073.2758.27578.4308.64983.4308 1.03986zm-14.11768 6.17647h-2.94117v9.41174h2.94117zm.26471-3.2353c.00155-.22247-.04074-.44307-.12445-.64921-.0837-.20613-.20719-.39376-.36342-.55216-.15622-.15841-.34211-.2845-.54706-.37106s-.42495-.13191-.64742-.13345h-.05295c-.45242 0-.88632.17973-1.20624.49964-.31991.31992-.49964.75382-.49964 1.20624 0 .45243.17973.88633.49964 1.20625.31992.31991.75382.49964 1.20624.49964.2225.00547.44389-.03295.65152-.11307.20764-.08011.39746-.20036.55861-.35386s.29048-.33726.38059-.54076.13924-.42276.14458-.64525zm10.91177 6.92944c0-2.8294-1.8-3.92943-3.5882-3.92943-.5855-.02932-1.1685.09538-1.6908.36168-.5222.26625-.9656.66485-1.2857 1.15595h-.0824v-1.28234h-2.76467v9.41174h2.94117v-5.0059c-.0425-.5126.119-1.0214.4494-1.4157s.8031-.6423 1.3153-.6901h.1118c.9353 0 1.6294.5882 1.6294 2.0705v5.0412h2.9412z" stroke="#000" stroke-linejoin="round"/></svg>

<?xml version="1.0" encoding="utf-8"?><!-- Uploaded to: SVG Repo, www.svgrepo.com, Generator: SVG Repo Mixer Tools -->
<svg width="800px" height="800px" viewBox="0 0 24 24" fill="none" xmlns="http://www.w3.org/2000/svg">
<path d="M22 3.47059V20.5294C22 20.9194 21.845 21.2935 21.5692 21.5693C21.2935 21.8451 20.9194 22 20.5294 22H3.47056C3.08053 22 2.70648 21.8451 2.43069 21.5693C2.15491 21.2935 1.99997 20.9194 1.99997 20.5294V3.47059C1.99997 3.08056 2.15491 2.70651 2.43069 2.43073C2.70648 2.15494 3.08053 2 3.47056 2H20.5294C20.9194 2 21.2935 2.15494 21.5692 2.43073C21.845 2.70651 22 3.08056 22 3.47059V3.47059ZM7.88232 9.64706H4.94115V19.0588H7.88232V9.64706ZM8.14703 6.41176C8.14858 6.18929 8.10629 5.96869 8.02258 5.76255C7.93888 5.55642 7.81539 5.36879 7.65916 5.21039C7.50294 5.05198 7.31705 4.92589 7.1121 4.83933C6.90715 4.75277 6.68715 4.70742 6.46468 4.70588H6.41173C5.95931 4.70588 5.52541 4.88561 5.20549 5.20552C4.88558 5.52544 4.70585 5.95934 4.70585 6.41176C4.70585 6.86419 4.88558 7.29809 5.20549 7.61801C5.52541 7.93792 5.95931 8.11765 6.41173 8.11765V8.11765C6.63423 8.12312 6.85562 8.0847 7.06325 8.00458C7.27089 7.92447 7.46071 7.80422 7.62186 7.65072C7.78301 7.49722 7.91234 7.31346 8.00245 7.10996C8.09256 6.90646 8.14169 6.6872 8.14703 6.46471V6.41176ZM19.0588 13.3412C19.0588 10.5118 17.2588 9.41177 15.4706 9.41177C14.8851 9.38245 14.3021 9.50715 13.7798 9.77345C13.2576 10.0397 12.8142 10.4383 12.4941 10.9294H12.4117V9.64706H9.64703V19.0588H12.5882V14.0529C12.5457 13.5403 12.7072 13.0315 13.0376 12.6372C13.368 12.2429 13.8407 11.9949 14.3529 11.9471H14.4647C15.4 11.9471 16.0941 12.5353 16.0941 14.0176V19.0588H19.0353L19.0588 13.3412Z" stroke="#000000" stroke-linejoin="round"/>
</svg>
